;FLAVOR:Marlin
;TIME:1762
;Filament used: 1.40018m
;Layer height: 0.3
;MINX:87.6
;MINY:91.778
;MINZ:0.2
;MAXX:147.4
;MAXY:143.222
;MAXZ:10.1
;Generated with Cura_SteamEngine master
M140 S50
M105
M190 S50
M104 S200
M105
M109 S200
M82 ;absolute extrusion mode
; Ender 3 Custom Start G-code
G92 E0 ; Reset Extruder
G28 ; Home all axes
G1 Z2.0 F3000 ; Move Z Axis up little to prevent scratching of Heat Bed
G1 X0.1 Y20 Z0.3 F5000.0 ; Move to start position
G1 X0.1 Y200.0 Z0.3 F1500.0 E15 ; Draw the first line
G1 X0.4 Y200.0 Z0.3 F5000.0 ; Move to side a little
G1 X0.4 Y20 Z0.3 F1500.0 E30 ; Draw the second line
G92 E0 ; Reset Extruder
G1 Z2.0 F3000 ; Move Z Axis up little to prevent scratching of Heat Bed
G1 X5 Y20 Z0.3 F5000.0 ; Move over to prevent blob squish
G92 E0
G92 E0
G1 F2700 E-5
;LAYER_COUNT:34
;LAYER:0
M107
G0 F6000 X100.652 Y96.061 Z0.2
;TYPE:SKIRT
G1 F2700 E0
G1 F1200 X101.349 Y95.433 E0.0312
G1 X102.097 Y94.867 E0.0624
G1 X102.89 Y94.367 E0.09358
G1 X103.723 Y93.936 E0.12478
G1 X104.53 Y93.6 E0.15385
G1 X104.65 Y93.555 E0.15811
G1 X105.971 Y93.037 E0.20531
G1 X106.388 Y92.893 E0.21998
G1 X107.334 Y92.528 E0.25371
G1 X108.223 Y92.227 E0.28492
G1 X109.134 Y92.003 E0.31613
G1 X110.06 Y91.858 E0.3473
G1 X110.985 Y91.793 E0.37814
G1 X111.334 Y91.783 E0.38975
G1 X111.649 Y91.778 E0.40023
G1 X113.693 Y91.778 E0.46822
G1 X115.592 Y91.804 E0.53138
G1 X116.281 Y91.822 E0.55431
G1 X118.809 Y91.824 E0.63839
G1 X120.078 Y91.792 E0.68061
G1 X121.149 Y91.78 E0.71623
G1 X123.154 Y91.779 E0.78292
G1 X123.856 Y91.789 E0.80627
G1 X124.792 Y91.842 E0.83745
G1 X125.72 Y91.975 E0.86863
G1 X126.634 Y92.187 E0.89984
G1 X127.474 Y92.456 E0.92918
G1 X127.802 Y92.577 E0.9408
G1 X129.426 Y93.192 E0.99856
G1 X130.626 Y93.658 E1.04138
G1 X131.485 Y94.034 E1.07257
G1 X132.309 Y94.483 E1.10378
G1 X133.091 Y95 E1.13496
G1 X133.827 Y95.581 E1.16614
G1 X134.511 Y96.223 E1.19734
G1 X135.137 Y96.921 E1.22853
G1 X135.511 Y97.402 E1.24879
G1 X136.133 Y98.251 E1.2838
G1 X136.526 Y98.803 E1.30634
G1 X138.055 Y100.826 E1.39068
G1 X139.609 Y102.767 E1.47338
G1 X141.247 Y104.696 E1.55755
G1 X142.919 Y106.557 E1.64076
G1 X143.972 Y107.665 E1.6916
G1 X144.456 Y108.187 E1.71527
G1 X145.064 Y108.901 E1.74646
G1 X145.609 Y109.665 E1.77768
G1 X146.086 Y110.472 E1.80886
G1 X146.494 Y111.317 E1.84007
G1 X146.827 Y112.193 E1.87124
G1 X147.085 Y113.095 E1.90244
G1 X147.265 Y114.015 E1.93362
G1 X147.367 Y114.948 E1.96484
G1 X147.389 Y115.491 E1.98291
G1 X147.4 Y116.289 E2.00946
G1 X147.4 Y118.822 E2.0937
G1 X147.391 Y119.479 E2.11556
G1 X147.338 Y120.415 E2.14674
G1 X147.206 Y121.344 E2.17795
G1 X146.967 Y122.357 E2.21256
G1 X146.671 Y123.247 E2.24376
G1 X146.3 Y124.108 E2.27494
G1 X145.858 Y124.935 E2.30613
G1 X145.346 Y125.721 E2.33733
G1 X144.77 Y126.461 E2.36852
G1 X144.452 Y126.819 E2.38445
G1 X143.75 Y127.573 E2.41871
G1 X143.103 Y128.248 E2.44981
G1 X141.416 Y130.113 E2.53345
G1 X139.783 Y132.026 E2.61711
G1 X138.229 Y133.952 E2.69942
G1 X135.907 Y137.049 E2.82816
G1 X135.574 Y137.511 E2.8471
G1 X134.995 Y138.248 E2.87828
G1 X134.354 Y138.933 E2.90948
G1 X133.658 Y139.562 E2.94068
G1 X132.911 Y140.128 E2.97185
G1 X132.118 Y140.629 E3.00305
G1 X131.285 Y141.061 E3.03426
G1 X130.456 Y141.406 E3.06413
G1 X130.322 Y141.456 E3.06888
G1 X129.025 Y141.964 E3.11521
G1 X128.614 Y142.105 E3.12966
G1 X127.662 Y142.473 E3.16361
G1 X126.773 Y142.774 E3.19483
G1 X125.863 Y142.997 E3.22599
G1 X124.936 Y143.142 E3.2572
G1 X124.019 Y143.207 E3.28777
G1 X123.675 Y143.217 E3.29922
G1 X123.35 Y143.222 E3.31003
G1 X121.119 Y143.22 E3.38423
G1 X119.345 Y143.195 E3.44324
G1 X118.734 Y143.178 E3.46357
G1 X116.186 Y143.178 E3.54832
G1 X114.871 Y143.211 E3.59207
G1 X113.855 Y143.222 E3.62587
G1 X111.85 Y143.221 E3.69255
G1 X111.146 Y143.211 E3.71597
G1 X110.209 Y143.158 E3.74718
G1 X109.281 Y143.025 E3.77836
G1 X108.367 Y142.813 E3.80957
G1 X107.516 Y142.54 E3.8393
G1 X107.089 Y142.383 E3.85443
G1 X105.609 Y141.821 E3.90708
G1 X104.379 Y141.344 E3.95096
G1 X103.52 Y140.968 E3.98215
G1 X102.696 Y140.52 E4.01334
G1 X101.913 Y140.003 E4.04455
G1 X101.177 Y139.422 E4.07574
G1 X100.493 Y138.78 E4.10694
G1 X99.866 Y138.082 E4.13815
G1 X99.488 Y137.596 E4.15862
G1 X98.866 Y136.748 E4.1936
G1 X98.466 Y136.188 E4.21649
G1 X96.958 Y134.193 E4.29967
G1 X95.379 Y132.219 E4.38375
G1 X93.75 Y130.301 E4.46744
G1 X92.064 Y128.424 E4.55136
G1 X91.028 Y127.335 E4.60135
G1 X90.544 Y126.813 E4.62503
G1 X89.936 Y126.099 E4.65622
G1 X89.391 Y125.335 E4.68743
G1 X88.914 Y124.528 E4.71861
G1 X88.506 Y123.683 E4.74982
G1 X88.173 Y122.807 E4.78099
G1 X87.915 Y121.905 E4.81219
G1 X87.735 Y120.985 E4.84337
G1 X87.633 Y120.052 E4.87459
G1 X87.611 Y119.5 E4.89297
G1 X87.6 Y118.676 E4.92037
G1 X87.6 Y116.18 E5.00339
G1 X87.609 Y115.517 E5.02544
G1 X87.662 Y114.58 E5.05666
G1 X87.794 Y113.652 E5.08784
G1 X88.005 Y112.738 E5.11903
G1 X88.293 Y111.845 E5.15024
G1 X88.656 Y110.981 E5.18141
G1 X89.091 Y110.15 E5.21261
G1 X89.596 Y109.359 E5.24382
G1 X90.166 Y108.614 E5.27502
G1 X90.553 Y108.175 E5.29449
G1 X91.25 Y107.427 E5.32849
G1 X91.897 Y106.752 E5.35959
G1 X93.584 Y104.887 E5.44323
G1 X95.217 Y102.974 E5.52689
G1 X96.771 Y101.048 E5.6092
G1 X99.095 Y97.949 E5.73804
G1 X99.431 Y97.483 E5.75714
G1 X100.011 Y96.746 E5.78834
G1 X100.652 Y96.061 E5.81954
G0 F6000 X100.957 Y96.323
G1 F1200 X101.643 Y95.709 E5.85016
G1 X102.38 Y95.158 E5.88077
G1 X103.163 Y94.672 E5.91142
G1 X103.984 Y94.257 E5.94201
G1 X104.669 Y93.975 E5.96665
G1 X104.824 Y93.918 E5.97215
G1 X106.117 Y93.41 E6.01835
G1 X106.52 Y93.272 E6.03252
G1 X107.479 Y92.901 E6.06672
G1 X108.351 Y92.607 E6.09733
G1 X109.246 Y92.389 E6.12796
G1 X110.156 Y92.25 E6.15858
G1 X110.996 Y92.192 E6.18659
G1 X111.345 Y92.182 E6.1982
G1 X111.649 Y92.178 E6.20831
G1 X113.693 Y92.178 E6.2763
G1 X115.586 Y92.204 E6.33926
G1 X116.27 Y92.222 E6.36202
G1 X118.82 Y92.224 E6.44683
G1 X120.083 Y92.192 E6.48886
G1 X121.149 Y92.18 E6.52431
G1 X123.148 Y92.179 E6.5908
G1 X123.85 Y92.189 E6.61415
G1 X124.769 Y92.242 E6.64477
G1 X125.68 Y92.375 E6.67539
G1 X126.576 Y92.586 E6.70601
G1 X127.337 Y92.832 E6.73261
G1 X127.661 Y92.951 E6.74409
G1 X129.281 Y93.565 E6.80171
G1 X130.481 Y94.031 E6.84452
G1 X131.324 Y94.401 E6.87514
G1 X132.132 Y94.843 E6.90578
G1 X132.898 Y95.353 E6.93638
G1 X133.617 Y95.928 E6.967
G1 X134.283 Y96.564 E6.99763
G1 X134.892 Y97.254 E7.02824
G1 X135.189 Y97.639 E7.04442
G1 X135.807 Y98.483 E7.07921
G1 X136.197 Y99.03 E7.10155
G1 X137.74 Y101.071 E7.18665
G1 X139.291 Y103.01 E7.26924
G1 X140.962 Y104.977 E7.35508
G1 X142.633 Y106.837 E7.43824
G1 X143.679 Y107.937 E7.48873
G1 X144.163 Y108.459 E7.51241
G1 X144.759 Y109.161 E7.54303
G1 X145.292 Y109.911 E7.57364
G1 X145.758 Y110.705 E7.60426
G1 X146.153 Y111.537 E7.63489
G1 X146.474 Y112.4 E7.66552
G1 X146.72 Y113.287 E7.69613
G1 X146.887 Y114.192 E7.72674
G1 X146.989 Y115.497 E7.77028
G1 X147 Y116.29 E7.79665
G1 X147 Y118.816 E7.88067
G1 X146.991 Y119.473 E7.90252
G1 X146.938 Y120.392 E7.93314
G1 X146.806 Y121.303 E7.96376
G1 X146.582 Y122.247 E7.99603
G1 X146.291 Y123.12 E8.02663
G1 X145.925 Y123.965 E8.05726
G1 X145.487 Y124.775 E8.08789
G1 X144.981 Y125.544 E8.11851
G1 X144.158 Y126.547 E8.16166
G1 X143.461 Y127.296 E8.19569
G1 X142.819 Y127.966 E8.22655
G1 X141.115 Y129.85 E8.31104
G1 X139.484 Y131.76 E8.39458
G1 X137.907 Y133.714 E8.47809
G1 X135.594 Y136.798 E8.60631
G1 X135.25 Y137.277 E8.62593
G1 X134.68 Y138 E8.65655
G1 X134.05 Y138.672 E8.68718
G1 X133.364 Y139.286 E8.71781
G1 X132.627 Y139.838 E8.74843
G1 X131.845 Y140.324 E8.77905
G1 X131.024 Y140.741 E8.80968
G1 X130.318 Y141.031 E8.83507
G1 X130.178 Y141.083 E8.84003
G1 X128.879 Y141.592 E8.88644
G1 X128.479 Y141.729 E8.9005
G1 X127.518 Y142.1 E8.93476
G1 X126.645 Y142.394 E8.9654
G1 X125.751 Y142.612 E8.99601
G1 X124.841 Y142.75 E9.02662
G1 X124.007 Y142.808 E9.05443
G1 X123.663 Y142.818 E9.06587
G1 X123.35 Y142.822 E9.07628
G1 X121.125 Y142.82 E9.15029
G1 X119.191 Y142.792 E9.21462
G1 X118.71 Y142.778 E9.23062
G1 X116.176 Y142.778 E9.3149
G1 X114.867 Y142.811 E9.35846
G1 X113.855 Y142.822 E9.39212
G1 X111.855 Y142.821 E9.45864
G1 X111.151 Y142.811 E9.48206
G1 X110.232 Y142.758 E9.51267
G1 X109.321 Y142.625 E9.54329
G1 X108.425 Y142.414 E9.57391
G1 X107.654 Y142.164 E9.60087
G1 X107.231 Y142.009 E9.61585
G1 X105.753 Y141.448 E9.66843
G1 X104.523 Y140.971 E9.71231
G1 X103.68 Y140.601 E9.74293
G1 X102.872 Y140.159 E9.77356
G1 X102.106 Y139.649 E9.80417
G1 X101.387 Y139.075 E9.83477
G1 X100.72 Y138.44 E9.8654
G1 X100.111 Y137.75 E9.89601
G1 X99.81 Y137.36 E9.9124
G1 X99.275 Y136.631 E9.94247
G1 X98.808 Y135.977 E9.9692
G1 X97.274 Y133.947 E10.05383
G1 X95.68 Y131.956 E10.13866
G1 X94.069 Y130.059 E10.22143
G1 X92.367 Y128.164 E10.30615
G1 X91.321 Y127.063 E10.35666
G1 X90.837 Y126.541 E10.38034
G1 X90.241 Y125.839 E10.41097
G1 X89.708 Y125.089 E10.44157
G1 X89.242 Y124.295 E10.47219
G1 X88.847 Y123.463 E10.50282
G1 X88.526 Y122.6 E10.53345
G1 X88.28 Y121.713 E10.56406
G1 X88.113 Y120.808 E10.59467
G1 X88.011 Y119.494 E10.63851
G1 X88 Y118.676 E10.66572
G1 X88 Y116.185 E10.74857
G1 X88.009 Y115.522 E10.77062
G1 X88.061 Y114.603 E10.80124
G1 X88.193 Y113.692 E10.83185
G1 X88.404 Y112.796 E10.86247
G1 X88.692 Y111.921 E10.89311
G1 X89.054 Y111.075 E10.92371
G1 X89.488 Y110.263 E10.95434
G1 X89.992 Y109.492 E10.98497
G1 X90.846 Y108.447 E11.02986
G1 X91.539 Y107.704 E11.06365
G1 X92.181 Y107.034 E11.09452
G1 X93.885 Y105.15 E11.17901
G1 X95.516 Y103.24 E11.26254
G1 X97.093 Y101.286 E11.34606
G1 X99.414 Y98.19 E11.47475
G1 X99.756 Y97.716 E11.4942
G1 X100.326 Y96.994 E11.52479
G1 X100.957 Y96.323 E11.55543
G0 F6000 X101.261 Y96.585
G1 F1200 X101.937 Y95.986 E11.58547
G1 X102.663 Y95.45 E11.61548
G1 X103.434 Y94.979 E11.64553
G1 X104.243 Y94.579 E11.67555
G1 X104.808 Y94.35 E11.69583
G1 X104.951 Y94.297 E11.7009
G1 X106.263 Y93.782 E11.74778
G1 X106.655 Y93.648 E11.76156
G1 X107.623 Y93.274 E11.79607
G1 X108.479 Y92.986 E11.82611
G1 X109.357 Y92.775 E11.85614
G1 X110.25 Y92.642 E11.88617
G1 X111.008 Y92.592 E11.91144
G1 X111.357 Y92.582 E11.92305
G1 X111.649 Y92.578 E11.93276
G1 X113.693 Y92.578 E12.00075
G1 X115.58 Y92.604 E12.06352
G1 X116.258 Y92.622 E12.08607
G1 X118.792 Y92.624 E12.17035
G1 X119.939 Y92.594 E12.20852
G1 X121.15 Y92.58 E12.2488
G1 X123.142 Y92.579 E12.31505
G1 X123.844 Y92.589 E12.3384
G1 X124.746 Y92.642 E12.36846
G1 X125.639 Y92.774 E12.39848
G1 X126.517 Y92.985 E12.42851
G1 X127.2 Y93.207 E12.4524
G1 X127.519 Y93.325 E12.46371
G1 X129.136 Y93.938 E12.52123
G1 X130.336 Y94.404 E12.56404
G1 X131.163 Y94.768 E12.5941
G1 X131.954 Y95.203 E12.62412
G1 X132.704 Y95.707 E12.65418
G1 X133.406 Y96.275 E12.68421
G1 X134.055 Y96.903 E12.71425
G1 X134.866 Y97.876 E12.75638
G1 X135.481 Y98.715 E12.79098
G1 X135.885 Y99.281 E12.81411
G1 X137.406 Y101.294 E12.89802
G1 X138.99 Y103.273 E12.98233
G1 X140.66 Y105.24 E13.06815
G1 X142.327 Y107.096 E13.15113
G1 X143.386 Y108.209 E13.20223
G1 X143.87 Y108.731 E13.2259
G1 X144.454 Y109.42 E13.25594
G1 X144.975 Y110.157 E13.28596
G1 X145.428 Y110.938 E13.31599
G1 X145.811 Y111.756 E13.34603
G1 X146.12 Y112.605 E13.37608
G1 X146.352 Y113.478 E13.40613
G1 X146.507 Y114.367 E13.43614
G1 X146.589 Y115.504 E13.47406
G1 X146.6 Y116.29 E13.5002
G1 X146.6 Y118.811 E13.58405
G1 X146.591 Y119.468 E13.6059
G1 X146.539 Y120.369 E13.63592
G1 X146.407 Y121.263 E13.66598
G1 X146.198 Y122.137 E13.69587
G1 X145.911 Y122.994 E13.72593
G1 X145.55 Y123.822 E13.75597
G1 X145.118 Y124.614 E13.78598
G1 X144.616 Y125.365 E13.81602
G1 X143.865 Y126.275 E13.85526
G1 X143.282 Y126.903 E13.88376
G1 X142.532 Y127.687 E13.91985
G1 X140.815 Y129.585 E14.00498
G1 X139.167 Y131.516 E14.08941
G1 X137.599 Y133.459 E14.17245
G1 X135.275 Y136.557 E14.30126
G1 X134.925 Y137.044 E14.32121
G1 X134.366 Y137.753 E14.35124
G1 X133.746 Y138.41 E14.38129
G1 X133.07 Y139.009 E14.41133
G1 X132.344 Y139.546 E14.44136
G1 X131.574 Y140.017 E14.47138
G1 X130.765 Y140.419 E14.50143
G1 X130.179 Y140.656 E14.52245
G1 X130.006 Y140.72 E14.52859
G1 X128.733 Y141.219 E14.57406
G1 X128.352 Y141.349 E14.58745
G1 X127.374 Y141.727 E14.62233
G1 X126.518 Y142.015 E14.65237
G1 X125.64 Y142.226 E14.6824
G1 X124.746 Y142.358 E14.71246
G1 X123.995 Y142.408 E14.73749
G1 X123.651 Y142.418 E14.74894
G1 X123.35 Y142.422 E14.75895
G1 X121.13 Y142.42 E14.83279
G1 X119.203 Y142.392 E14.89689
G1 X118.722 Y142.378 E14.91289
G1 X116.204 Y142.378 E14.99664
G1 X115.013 Y142.409 E15.03627
G1 X113.855 Y142.422 E15.07478
G1 X111.861 Y142.421 E15.1411
G1 X111.157 Y142.411 E15.16452
G1 X110.256 Y142.358 E15.19454
G1 X109.362 Y142.226 E15.2246
G1 X108.484 Y142.015 E15.25463
G1 X107.792 Y141.789 E15.27884
G1 X107.373 Y141.635 E15.29369
G1 X105.898 Y141.075 E15.34617
G1 X104.668 Y140.598 E15.39005
G1 X103.841 Y140.234 E15.4201
G1 X103.05 Y139.799 E15.45012
G1 X102.3 Y139.296 E15.48016
G1 X101.598 Y138.728 E15.51019
G1 X100.949 Y138.1 E15.54023
G1 X100.133 Y137.123 E15.58257
G1 X99.518 Y136.283 E15.61719
G1 X99.121 Y135.726 E15.63994
G1 X97.59 Y133.701 E15.72438
G1 X95.995 Y131.708 E15.80928
G1 X94.356 Y129.778 E15.8935
G1 X92.672 Y127.903 E15.97732
G1 X91.614 Y126.791 E16.02837
G1 X91.13 Y126.269 E16.05205
G1 X90.546 Y125.58 E16.08209
G1 X90.025 Y124.843 E16.11211
G1 X89.572 Y124.062 E16.14214
G1 X89.189 Y123.244 E16.17218
G1 X88.88 Y122.395 E16.20223
G1 X88.648 Y121.522 E16.23227
G1 X88.493 Y120.633 E16.26229
G1 X88.411 Y119.488 E16.30047
G1 X88.4 Y118.675 E16.32751
G1 X88.4 Y116.191 E16.41013
G1 X88.409 Y115.528 E16.43218
G1 X88.461 Y114.626 E16.46223
G1 X88.593 Y113.733 E16.49226
G1 X88.803 Y112.854 E16.52231
G1 X89.09 Y111.998 E16.55234
G1 X89.452 Y111.171 E16.58237
G1 X89.886 Y110.378 E16.61244
G1 X90.388 Y109.627 E16.64248
G1 X91.139 Y108.719 E16.68167
G1 X91.724 Y108.09 E16.71024
G1 X92.468 Y107.313 E16.74602
G1 X94.185 Y105.415 E16.83115
G1 X95.833 Y103.484 E16.91558
G1 X97.401 Y101.541 E16.99863
G1 X99.726 Y98.441 E17.12751
G1 X100.08 Y97.95 E17.14764
G1 X100.64 Y97.242 E17.17767
G1 X101.261 Y96.585 E17.20773
G1 F2700 E12.20773
;MESH:21700x1.stl
G0 F6000 X113.019 Y114.431
G0 X111.456 Y113.431
G0 X111.079 Y117.03
G0 X111.105 Y118.235
G0 X111.356 Y119.412
G0 X111.822 Y120.522
G0 X112.487 Y121.526
G0 X113.13 Y122.228
G0 X113.991 Y122.885
G0 X117.247 Y124.596
;TYPE:WALL-INNER
G1 F2700 E17.20773
G1 F1200 X117.546 Y124.59 E17.21768
G1 X118.258 Y124.556 E17.24139
G1 X118.582 Y124.518 E17.25224
G1 X119.279 Y124.358 E17.27602
G1 X119.563 Y124.295 E17.2857
G1 X119.877 Y124.189 E17.29672
G1 X120.534 Y123.907 E17.3205
G1 X120.807 Y123.784 E17.33046
G1 X121.081 Y123.625 E17.341
G1 X121.675 Y123.233 E17.36467
G1 X121.929 Y123.052 E17.37504
G1 X122.158 Y122.847 E17.38526
G1 X122.673 Y122.357 E17.40891
G1 X122.893 Y122.121 E17.41964
G1 X123.073 Y121.881 E17.42962
G1 X123.491 Y121.306 E17.45326
G1 X123.662 Y121.027 E17.46414
G1 X124.098 Y120.123 E17.49753
G1 X124.211 Y119.814 E17.50847
G1 X124.401 Y119.122 E17.53234
G1 X124.474 Y118.835 E17.54219
G1 X124.521 Y118.521 E17.55275
G1 X124.585 Y117.808 E17.57656
G1 X124.6 Y117.502 E17.58675
G1 X124.586 Y117.193 E17.59703
G1 X124.52 Y116.483 E17.62075
G1 X124.475 Y116.169 E17.6313
G1 X124.402 Y115.879 E17.64125
G1 X124.21 Y115.189 E17.66507
G1 X124.099 Y114.88 E17.67599
G1 X123.663 Y113.975 E17.7094
G1 X123.493 Y113.696 E17.72027
G1 X123.072 Y113.118 E17.74405
G1 X122.892 Y112.879 E17.754
G1 X122.676 Y112.646 E17.76457
G1 X122.159 Y112.154 E17.78831
G1 X121.929 Y111.948 E17.79858
G1 X121.676 Y111.768 E17.8089
G1 X121.083 Y111.376 E17.83255
G1 X120.806 Y111.215 E17.8432
G1 X120.534 Y111.094 E17.8531
G1 X119.88 Y110.812 E17.87679
G1 X119.568 Y110.707 E17.88774
G1 X118.585 Y110.482 E17.92128
G1 X118.26 Y110.443 E17.93217
G1 X117.547 Y110.411 E17.95591
G1 X117.25 Y110.404 E17.96579
G1 X116.932 Y110.427 E17.97639
G1 X116.225 Y110.524 E18.00013
G1 X115.921 Y110.575 E18.01038
G1 X115.621 Y110.66 E18.02075
G1 X114.946 Y110.882 E18.04438
G1 X114.649 Y110.995 E18.05495
G1 X114.382 Y111.133 E18.06495
G1 X113.753 Y111.473 E18.08873
G1 X113.478 Y111.648 E18.09957
G1 X112.694 Y112.275 E18.13296
G1 X112.459 Y112.502 E18.14383
